build/images/g22.svg

<svg width="138" height="138" viewBox="0 0 138 138" fill="none" xmlns="http://www.w3.org/2000/svg">
<circle cx="69" cy="69" r="69" fill="#76BD5E"/>
<path d="M74.2499 40.7C77.3332 40.7 79.7999 43.1666 79.7999 46.25C79.7999 49.3333 77.3332 51.8 74.2499 51.8C71.1666 51.8 68.6999 49.3333 68.6999 46.25C68.6999 43.1666 71.1666 40.7 74.2499 40.7ZM61.9166 107.917V103.908H56.6749L64.0749 82.9416L71.1666 92.4999V103.908H68.0832V107.917H89.6666V103.908H76.7166V87.8749L69.0082 73.9999L71.1666 65.3666L74.5583 70.9166H89.6666V65.0583H78.5666L72.3999 54.8833C71.4749 53.3416 69.6249 52.4166 67.7749 52.4166C67.1582 52.4166 66.8499 52.7249 66.2332 52.7249L49.5833 57.9666V73.9999H55.1333V62.5916L61.9166 60.7416L50.8166 103.908H40.3333V107.917" fill="white"/>
</svg>

<svg width="138" height="138" fill="none" xmlns="http://www.w3.org/2000/svg"><circle cx="69" cy="69" r="69" fill="#76BD5E"/><path d="M74.25 40.7a5.527 5.527 0 015.55 5.55 5.527 5.527 0 01-5.55 5.55 5.527 5.527 0 01-5.55-5.55 5.527 5.527 0 015.55-5.55zm-12.333 67.217v-4.009h-5.242l7.4-20.966 7.092 9.558v11.408h-3.084v4.009h21.584v-4.009h-12.95V87.875L69.008 74l2.159-8.633 3.391 5.55h15.109v-5.859h-11.1L72.4 54.883c-.925-1.541-2.775-2.466-4.625-2.466-.617 0-.925.308-1.542.308l-16.65 5.242V74h5.55V62.592l6.784-1.85-11.1 43.166H40.333v4.009" fill="#fff"/></svg>
